fs/arrow_sync_off_20_filled.svg

<svg viewBox="0 0 20 20" fill="none" xmlns="http://www.w3.org/2000/svg" height="1em" width="1em">
  <path d="M9.88501 3.75004C8.80247 3.7698 7.72516 4.06873 6.76924 4.64693L5.68322 3.5609C6.79699 2.81251 8.06221 2.38428 9.34839 2.2763L8.76258 1.69049C8.46969 1.39759 8.46969 0.922719 8.76258 0.629826C9.05547 0.336933 9.53035 0.336933 9.82324 0.629826L11.9446 2.75115C12.2375 3.04404 12.2375 3.51891 11.9446 3.81181L9.82324 5.93313C9.53035 6.22602 9.05547 6.22602 8.76258 5.93313C8.46969 5.64023 8.46969 5.16536 8.76258 4.87247L9.88501 3.75004ZM4.17758 4.88371C1.49802 7.92773 1.61214 12.5713 4.51993 15.4791C4.78521 15.7443 5.06528 15.9866 5.3576 16.2058C5.68902 16.4543 6.15911 16.387 6.40758 16.0556C6.65604 15.7242 6.5888 15.2541 6.25739 15.0056C6.02176 14.829 5.79547 14.6333 5.58059 14.4184C3.25882 12.0966 3.14561 8.40267 5.24095 5.94708L14.0519 14.758C12.9181 15.7257 11.5209 16.2222 10.115 16.2479L11.2374 15.1255C11.5303 14.8326 11.5303 14.3577 11.2374 14.0648C10.9445 13.7719 10.4696 13.7719 10.1768 14.0648L8.05543 16.1861C7.76254 16.479 7.76254 16.9539 8.05543 17.2468L10.1768 19.3681C10.4696 19.661 10.9445 19.661 11.2374 19.3681C11.5303 19.0752 11.5303 18.6003 11.2374 18.3075L10.6516 17.7216C12.2567 17.5869 13.8291 16.9534 15.1152 15.8214L17.1464 17.8526C17.3417 18.0478 17.6583 18.0478 17.8536 17.8526C18.0488 17.6573 18.0488 17.3407 17.8536 17.1455L2.85355 2.14547C2.65829 1.95021 2.34171 1.95021 2.14645 2.14547C1.95118 2.34073 1.95118 2.65731 2.14645 2.85258L4.17758 4.88371ZM15.352 13.2296L16.4381 14.3158C18.4631 11.3029 18.1438 7.18257 15.4801 4.51887C15.2148 4.25359 14.9347 4.0113 14.6424 3.79214C14.311 3.54367 13.8409 3.61091 13.5924 3.94233C13.344 4.27374 13.4112 4.74383 13.7426 4.9923C13.9782 5.16896 14.2045 5.36466 14.4194 5.57953C16.4946 7.65469 16.8054 10.8261 15.352 13.2296Z" fill="#212121"/>
</svg>

<svg viewBox="0 0 20 20" fill="none" xmlns="http://www.w3.org/2000/svg" height="1em" width="1em">
  <path d="M9.885 3.75a6.236 6.236 0 0 0-3.116.897L5.683 3.56a7.725 7.725 0 0 1 3.665-1.285l-.585-.586A.75.75 0 0 1 9.823.63l2.122 2.121a.75.75 0 0 1 0 1.06L9.823 5.934a.75.75 0 0 1-1.06-1.06L9.885 3.75ZM4.178 4.884a7.75 7.75 0 0 0 1.18 11.322.75.75 0 1 0 .9-1.2 6.25 6.25 0 0 1-1.016-9.059l8.81 8.811a6.225 6.225 0 0 1-3.937 1.49l1.122-1.123a.75.75 0 0 0-1.06-1.06l-2.122 2.121a.75.75 0 0 0 0 1.06l2.122 2.122a.75.75 0 1 0 1.06-1.06l-.585-.586a7.718 7.718 0 0 0 4.463-1.9l2.031 2.03a.5.5 0 0 0 .708-.707l-15-15a.5.5 0 1 0-.708.708l2.032 2.03Zm11.174 8.346 1.086 1.086a7.753 7.753 0 0 0-1.796-10.524.75.75 0 0 0-.9 1.2 6.253 6.253 0 0 1 1.61 8.237Z" fill="#212121"/>
</svg>
